icon-themes/elementary_svg/cmd/sc_fliphorizontal.svg

<svg height="16" width="16" xmlns="http://www.w3.org/2000/svg"><g stroke-linejoin="round"><path d="m4.52 12.624h-4.06l3.463-10.164h.595z" fill="#e9e9e9" fill-rule="evenodd" stroke="#8c8c8c" stroke-miterlimit="0"/><path d="m11.544 12.624h3.997l-3.401-10.164h-.596z" fill="#d8b0f8" opacity=".5" stroke="#6326b9"/><path d="m6.5 3.52v2.98h3v-2.99zm0 5v2.98h3v-2.99zm0 5v2.98h3v-2.99zm0-15v2.98h3v-2.99z" fill="#fcaf3e" stroke="#ce5c00" stroke-miterlimit="0"/></g></svg>

<svg xmlns="http://www.w3.org/2000/svg" height="16" width="16"><g stroke-linejoin="round"><path d="M4.52 12.624H.46L3.923 2.46h.595z" fill="#e9e9e9" fill-rule="evenodd" stroke="#8c8c8c" stroke-miterlimit="0"/><path d="M11.544 12.624h3.997L12.14 2.46h-.596z" fill="#d8b0f8" opacity=".5" stroke="#6326b9"/><g fill="#fcaf3e" stroke="#ce5c00" stroke-miterlimit="0"><path d="M6.5 3.52V6.5h3V3.51zM6.5 8.52v2.98h3V8.51zM6.5 13.52v2.98h3v-2.99zM6.5-1.48V1.5h3v-2.99z"/></g></g></svg>
